;FLAVOR:Marlin
;TIME:1278
;Filament used: 0.516914m
;Layer height: 0.2
;MINX:85.868
;MINY:88.5
;MINZ:0.2
;MAXX:134.284
;MAXY:131.5
;MAXZ:7
;Generated with Cura_SteamEngine 4.8.0
M140 S70
M105
M190 S70
M104 S215
M105
M109 S215
M82 ;absolute extrusion mode
; Ender 3 Custom Start G-code
G92 E0 ; Reset Extruder
G28 ; Home all axes
G1 Z2.0 F3000 ; Move Z Axis up little to prevent scratching of Heat Bed
G1 X0.1 Y20 Z0.3 F5000.0 ; Move to start position
G1 X0.1 Y200.0 Z0.3 F1500.0 E15 ; Draw the first line
G1 X0.4 Y200.0 Z0.3 F5000.0 ; Move to side a little
G1 X0.4 Y20 Z0.3 F1500.0 E30 ; Draw the second line
G92 E0 ; Reset Extruder
G1 Z2.0 F3000 ; Move Z Axis up little to prevent scratching of Heat Bed
G1 X5 Y20 Z0.3 F5000.0 ; Move over to prevent blob squish
G92 E0
G92 E0
G1 F1500 E-6
;LAYER_COUNT:35
;LAYER:0
M107
G0 F6000 X89.061 Y91.769 Z0.2
;TYPE:SKIRT
G1 F1500 E0
G1 F1200 X89.749 Y91.131 E0.02965
G1 X90.488 Y90.555 E0.05925
G1 X91.274 Y90.043 E0.08889
G1 X92.101 Y89.6 E0.11854
G1 X92.963 Y89.23 E0.14818
G1 X93.852 Y88.934 E0.17778
G1 X94.764 Y88.715 E0.20742
G1 X95.692 Y88.574 E0.23708
G1 X96.601 Y88.513 E0.26586
G1 X97.001 Y88.503 E0.27851
G1 X97.276 Y88.5 E0.2872
G1 X122.577 Y88.5 E1.08663
G1 X123.433 Y88.511 E1.11368
G1 X124.369 Y88.565 E1.14331
G1 X125.297 Y88.697 E1.17292
G1 X126.211 Y88.909 E1.20257
G1 X127.103 Y89.198 E1.2322
G1 X127.968 Y89.561 E1.26184
G1 X128.798 Y89.997 E1.29146
G1 X129.589 Y90.502 E1.32112
G1 X130.333 Y91.073 E1.35075
G1 X131.026 Y91.705 E1.38038
G1 X131.663 Y92.393 E1.41001
G1 X132.238 Y93.134 E1.43965
G1 X132.749 Y93.92 E1.46927
G1 X133.191 Y94.748 E1.49892
G1 X133.56 Y95.61 E1.52855
G1 X133.855 Y96.5 E1.55818
G1 X134.073 Y97.412 E1.58781
G1 X134.213 Y98.34 E1.61746
G1 X134.271 Y99.202 E1.64476
G1 X134.28 Y99.523 E1.65491
G1 X134.284 Y99.83 E1.66461
G1 X134.284 Y119.915 E2.29924
G1 X134.275 Y120.629 E2.3218
G1 X134.223 Y121.565 E2.35142
G1 X134.092 Y122.494 E2.38106
G1 X133.882 Y123.408 E2.41069
G1 X133.595 Y124.301 E2.44033
G1 X133.233 Y125.166 E2.46996
G1 X132.798 Y125.997 E2.4996
G1 X132.295 Y126.788 E2.52922
G1 X131.725 Y127.533 E2.55886
G1 X131.095 Y128.228 E2.58849
G1 X130.407 Y128.865 E2.61812
G1 X129.668 Y129.442 E2.64775
G1 X128.882 Y129.954 E2.67739
G1 X128.055 Y130.397 E2.70703
G1 X127.194 Y130.769 E2.73666
G1 X126.304 Y131.065 E2.7663
G1 X125.392 Y131.284 E2.79594
G1 X124.465 Y131.426 E2.82557
G1 X123.551 Y131.487 E2.85451
G1 X123.151 Y131.497 E2.86716
G1 X122.876 Y131.5 E2.87585
G1 X97.433 Y131.499 E3.67977
G1 X96.735 Y131.49 E3.70183
G1 X95.799 Y131.438 E3.73145
G1 X94.87 Y131.306 E3.7611
G1 X93.956 Y131.096 E3.79073
G1 X93.063 Y130.809 E3.82037
G1 X92.198 Y130.446 E3.85001
G1 X91.367 Y130.012 E3.87963
G1 X90.576 Y129.508 E3.90927
G1 X89.831 Y128.938 E3.9389
G1 X89.137 Y128.307 E3.96854
G1 X88.5 Y127.62 E3.99814
G1 X87.923 Y126.88 E4.02779
G1 X87.411 Y126.094 E4.05743
G1 X86.968 Y125.267 E4.08708
G1 X86.597 Y124.406 E4.1167
G1 X86.301 Y123.516 E4.14634
G1 X86.082 Y122.604 E4.17597
G1 X85.941 Y121.677 E4.2056
G1 X85.88 Y120.766 E4.23445
G1 X85.871 Y120.406 E4.24583
G1 X85.868 Y120.132 E4.25449
G1 X85.868 Y100.057 E4.8888
G1 X85.877 Y99.367 E4.9106
G1 X85.929 Y98.43 E4.94025
G1 X86.061 Y97.502 E4.96987
G1 X86.271 Y96.588 E4.9995
G1 X86.559 Y95.695 E5.02915
G1 X86.921 Y94.83 E5.05878
G1 X87.356 Y93.999 E5.08842
G1 X87.86 Y93.208 E5.11805
G1 X88.43 Y92.463 E5.14769
G1 X89.061 Y91.769 E5.17733
G0 F6000 X89.453 Y91.943
G1 F1200 X90.137 Y91.328 E5.20639
G1 X90.873 Y90.774 E5.2355
G1 X91.653 Y90.286 E5.26457
G1 X92.474 Y89.867 E5.2937
G1 X93.327 Y89.522 E5.32277
G1 X94.207 Y89.252 E5.35185
G1 X95.107 Y89.059 E5.38094
G1 X96.021 Y88.945 E5.41004
G1 X96.611 Y88.913 E5.42871
G1 X97.011 Y88.903 E5.44135
G1 X97.276 Y88.9 E5.44973
G1 X122.577 Y88.9 E6.24917
G1 X123.427 Y88.911 E6.27603
G1 X124.346 Y88.964 E6.30511
G1 X125.257 Y89.097 E6.3342
G1 X126.153 Y89.308 E6.36329
G1 X127.027 Y89.596 E6.39237
G1 X127.874 Y89.959 E6.42148
G1 X128.685 Y90.394 E6.45056
G1 X129.455 Y90.898 E6.47964
G1 X130.179 Y91.467 E6.50874
G1 X130.851 Y92.097 E6.53784
G1 X131.466 Y92.782 E6.56693
G1 X132.019 Y93.518 E6.59602
G1 X132.506 Y94.299 E6.6251
G1 X132.923 Y95.12 E6.65419
G1 X133.268 Y95.974 E6.6833
G1 X133.537 Y96.854 E6.71237
G1 X133.729 Y97.755 E6.74148
G1 X133.842 Y98.668 E6.77055
G1 X133.871 Y99.213 E6.78779
G1 X133.88 Y99.534 E6.79794
G1 X133.884 Y99.83 E6.80729
G1 X133.884 Y119.91 E7.44176
G1 X133.875 Y120.624 E7.46433
G1 X133.824 Y121.543 E7.49341
G1 X133.692 Y122.454 E7.52249
G1 X133.483 Y123.351 E7.5516
G1 X133.196 Y124.225 E7.58066
G1 X132.834 Y125.072 E7.60977
G1 X132.401 Y125.884 E7.63884
G1 X131.898 Y126.656 E7.66796
G1 X131.331 Y127.381 E7.69704
G1 X130.703 Y128.054 E7.72612
G1 X130.018 Y128.669 E7.75521
G1 X129.283 Y129.224 E7.78431
G1 X128.503 Y129.712 E7.81338
G1 X127.683 Y130.131 E7.84248
G1 X126.829 Y130.477 E7.8716
G1 X125.95 Y130.747 E7.90065
G1 X125.049 Y130.941 E7.92977
G1 X124.136 Y131.055 E7.95884
G1 X123.541 Y131.087 E7.97767
G1 X123.141 Y131.097 E7.99031
G1 X122.876 Y131.1 E7.99869
G1 X97.438 Y131.099 E8.80246
G1 X96.74 Y131.09 E8.82451
G1 X95.821 Y131.038 E8.8536
G1 X94.91 Y130.907 E8.88268
G1 X94.014 Y130.697 E8.91176
G1 X93.139 Y130.41 E8.94085
G1 X92.292 Y130.048 E8.96996
G1 X91.48 Y129.614 E8.99905
G1 X90.709 Y129.112 E9.02812
G1 X89.984 Y128.544 E9.05722
G1 X89.311 Y127.915 E9.08633
G1 X88.696 Y127.231 E9.11539
G1 X88.142 Y126.496 E9.14447
G1 X87.654 Y125.715 E9.17357
G1 X87.235 Y124.895 E9.20267
G1 X86.889 Y124.042 E9.23175
G1 X86.619 Y123.162 E9.26084
G1 X86.426 Y122.261 E9.28995
G1 X86.312 Y121.348 E9.31902
G1 X86.28 Y120.756 E9.33776
G1 X86.271 Y120.396 E9.34914
G1 X86.268 Y120.132 E9.35748
G1 X86.268 Y100.062 E9.99163
G1 X86.277 Y99.372 E10.01344
G1 X86.329 Y98.453 E10.04252
G1 X86.46 Y97.541 E10.07163
G1 X86.671 Y96.645 E10.10072
G1 X86.958 Y95.77 E10.12981
G1 X87.32 Y94.924 E10.15889
G1 X87.754 Y94.112 E10.18798
G1 X88.256 Y93.341 E10.21705
G1 X88.824 Y92.616 E10.24615
G1 X89.453 Y91.943 E10.27526
G0 F6000 X89.844 Y92.121
G1 F1200 X90.525 Y91.528 E10.30379
G1 X91.256 Y90.998 E10.33232
G1 X92.031 Y90.534 E10.36086
G1 X92.844 Y90.141 E10.38939
G1 X93.689 Y89.821 E10.41794
G1 X94.558 Y89.577 E10.44646
G1 X95.446 Y89.411 E10.47501
G1 X96.621 Y89.313 E10.51226
G1 X97.021 Y89.303 E10.52491
G1 X97.276 Y89.3 E10.53297
G1 X122.577 Y89.3 E11.3324
G1 X123.421 Y89.311 E11.35907
G1 X124.323 Y89.364 E11.38762
G1 X125.216 Y89.496 E11.41615
G1 X126.094 Y89.707 E11.44468
G1 X126.95 Y89.995 E11.47322
G1 X127.777 Y90.357 E11.50174
G1 X128.569 Y90.792 E11.53029
G1 X129.32 Y91.294 E11.55883
G1 X130.023 Y91.861 E11.58737
G1 X130.673 Y92.488 E11.61591
G1 X131.265 Y93.17 E11.64444
G1 X131.795 Y93.901 E11.67297
G1 X132.257 Y94.677 E11.70151
G1 X132.65 Y95.49 E11.73004
G1 X132.968 Y96.335 E11.75857
G1 X133.211 Y97.205 E11.78711
G1 X133.376 Y98.093 E11.81565
G1 X133.471 Y99.224 E11.85151
G1 X133.48 Y99.545 E11.86166
G1 X133.484 Y99.83 E11.87066
G1 X133.484 Y119.905 E12.50498
G1 X133.475 Y120.619 E12.52754
G1 X133.424 Y121.52 E12.55605
G1 X133.293 Y122.414 E12.5846
G1 X133.084 Y123.292 E12.61312
G1 X132.797 Y124.149 E12.64168
G1 X132.436 Y124.977 E12.67022
G1 X132.003 Y125.769 E12.69874
G1 X131.502 Y126.521 E12.72729
G1 X130.937 Y127.225 E12.75581
G1 X130.311 Y127.876 E12.78435
G1 X129.63 Y128.469 E12.81288
G1 X128.899 Y129 E12.84143
G1 X128.125 Y129.464 E12.86994
G1 X127.312 Y129.858 E12.89849
G1 X126.467 Y130.178 E12.92704
G1 X125.598 Y130.422 E12.95556
G1 X124.71 Y130.589 E12.98411
G1 X123.531 Y130.687 E13.02149
G1 X123.131 Y130.697 E13.03413
G1 X122.876 Y130.7 E13.04219
G1 X97.443 Y130.699 E13.8458
G1 X96.745 Y130.69 E13.86786
G1 X95.844 Y130.639 E13.89637
G1 X94.95 Y130.507 E13.92493
G1 X94.072 Y130.298 E13.95344
G1 X93.215 Y130.011 E13.982
G1 X92.388 Y129.65 E14.01051
G1 X91.595 Y129.217 E14.03906
G1 X90.844 Y128.716 E14.06759
G1 X90.14 Y128.15 E14.09613
G1 X89.489 Y127.524 E14.12466
G1 X88.896 Y126.843 E14.1532
G1 X88.366 Y126.112 E14.18173
G1 X87.902 Y125.337 E14.21027
G1 X87.508 Y124.524 E14.23881
G1 X87.188 Y123.68 E14.26733
G1 X86.944 Y122.81 E14.29588
G1 X86.778 Y121.922 E14.32443
G1 X86.68 Y120.746 E14.36172
G1 X86.671 Y120.386 E14.37309
G1 X86.668 Y120.132 E14.38112
G1 X86.668 Y100.067 E15.01512
G1 X86.677 Y99.377 E15.03692
G1 X86.729 Y98.475 E15.06547
G1 X86.86 Y97.582 E15.09399
G1 X87.07 Y96.703 E15.12254
G1 X87.356 Y95.847 E15.15106
G1 X87.718 Y95.019 E15.17961
G1 X88.151 Y94.227 E15.20813
G1 X88.652 Y93.476 E15.23666
G1 X89.218 Y92.772 E15.2652
G1 X89.844 Y92.121 E15.29374
G1 F1500 E9.29374
G0 F6000 X123.441 Y98.839
G0 X123.945 Y99.343
G0 X123.949 Y108.3
G0 X117.751 Y108.301
G1 F1500 E15.29374
G1 F1200 X117.813 Y108.235 E15.2966
G1 X118.138 Y108.213 E15.30689
G1 X118.293 Y108.32 E15.31284
G1 X118.361 Y108.512 E15.31928
G1 X118.33 Y108.742 E15.32661
G1 X118.086 Y108.8 E15.33454
G1 X117.844 Y108.721 E15.34258
G1 X117.746 Y108.529 E15.34939
G1 X117.751 Y108.301 E15.3566
G0 F6000 X118.815 Y115.235
G1 F1200 X119.138 Y115.213 E15.36683
G1 X119.29 Y115.315 E15.37261
G1 X119.361 Y115.512 E15.37923
G1 X119.33 Y115.742 E15.38656
G1 X119.086 Y115.8 E15.39448
G1 X118.844 Y115.721 E15.40253
G1 X118.746 Y115.529 E15.40934
G1 X118.751 Y115.3 E15.41658
G1 X118.815 Y115.235 E15.41946
G1 F1500 E9.41946
G0 F6000 X123.949 Y115.234
G0 X123.946 Y120.657
G0 X123.442 Y121.161
G0 X96.711 Y121.161
G0 X96.207 Y120.657
G0 X96.203 Y115.316
G0 X101.29 Y115.315
G1 F1500 E15.41946
G1 F1200 X101.361 Y115.512 E15.42608
G1 X101.33 Y115.742 E15.43341
G1 X101.086 Y115.8 E15.44133
G1 X100.844 Y115.721 E15.44938
G1 X100.746 Y115.529 E15.45619
G1 X100.751 Y115.3 E15.46343
G1 X100.815 Y115.235 E15.46631
G1 X101.138 Y115.213 E15.47654
G1 X101.29 Y115.315 E15.48232
G0 F6000 X102.361 Y108.512
G1 F1200 X102.33 Y108.742 E15.48965
G1 X102.086 Y108.8 E15.49758
G1 X101.844 Y108.721 E15.50562
G1 X101.746 Y108.529 E15.51243
G1 X101.751 Y108.301 E15.51964
G1 X101.813 Y108.235 E15.5225
G1 X102.138 Y108.213 E15.53279
G1 X102.293 Y108.32 E15.53874
G1 X102.361 Y108.512 E15.54518
G0 F6000 X102.761 Y108.494
;TYPE:SUPPORT-INTERFACE
G1 F1200 X102.761 Y108.463 E15.54616
G1 X102.699 Y108.218 E15.55415
G1 X102.657 Y108.144 E15.55683
G1 X102.604 Y108.064 E15.55987
G1 X102.502 Y107.965 E15.56436
G1 X102.439 Y107.911 E15.56698
G1 X102.32 Y107.855 E15.57113
G1 X102.233 Y107.821 E15.57409
G1 X102.082 Y107.806 E15.57888
G1 X101.932 Y107.802 E15.58362
G1 X101.88 Y107.809 E15.58528
G1 X101.672 Y107.857 E15.59202
G1 X101.622 Y107.884 E15.59382
G1 X101.52 Y107.943 E15.59754
G1 X101.45 Y108.007 E15.60054
G1 X101.369 Y108.17 E15.60629
G1 X101.333 Y108.358 E15.61234
G1 X101.343 Y108.523 E15.61756
G1 X101.353 Y108.617 E15.62055
G1 X101.393 Y108.733 E15.62443
G1 X101.451 Y108.872 E15.62919
G1 X101.509 Y108.947 E15.63218
G1 X101.575 Y109.021 E15.63531
G1 X101.663 Y109.083 E15.63872
G1 X101.757 Y109.14 E15.64219
G1 X101.838 Y109.166 E15.64488
G1 X101.996 Y109.203 E15.65
G1 X102.101 Y109.2 E15.65332
G1 X102.212 Y109.192 E15.65684
G1 X102.345 Y109.165 E15.66113
G1 X102.496 Y109.107 E15.66624
G1 X102.551 Y109.078 E15.6682
G1 X102.641 Y109.006 E15.67185
G1 X102.696 Y108.916 E15.67518
G1 X102.759 Y108.711 E15.68195
G1 X102.761 Y108.494 E15.68881
G0 F6000 X103.145 Y108.58
G1 F1200 X103.119 Y108.751 E15.69428
G1 X103.066 Y108.915 E15.69972
G1 X102.992 Y109.066 E15.70504
G1 X102.903 Y109.192 E15.70991
G1 X102.782 Y109.318 E15.71543
G1 X102.651 Y109.418 E15.72064
G1 X102.493 Y109.504 E15.72632
G1 X102.338 Y109.56 E15.73153
G1 X102.183 Y109.589 E15.73651
G1 X102.01 Y109.596 E15.74198
G1 X101.844 Y109.578 E15.74726
G1 X101.676 Y109.531 E15.75277
G1 X101.522 Y109.462 E15.7581
G1 X101.383 Y109.373 E15.76332
G1 X101.265 Y109.268 E15.76831
G1 X101.152 Y109.129 E15.77397
G1 X101.072 Y108.994 E15.77893
G1 X101.005 Y108.827 E15.78461
G1 X100.964 Y108.658 E15.79011
G1 X100.951 Y108.5 E15.79512
G1 X100.964 Y108.342 E15.80013
G1 X101.005 Y108.173 E15.80562
G1 X101.072 Y108.005 E15.81134
G1 X101.152 Y107.871 E15.81627
G1 X101.265 Y107.732 E15.82193
G1 X101.383 Y107.627 E15.82692
G1 X101.522 Y107.538 E15.83213
G1 X101.676 Y107.469 E15.83746
G1 X101.844 Y107.422 E15.84298
G1 X102.01 Y107.404 E15.84825
G1 X102.183 Y107.411 E15.85372
G1 X102.338 Y107.44 E15.85871
G1 X102.493 Y107.496 E15.86391
G1 X102.651 Y107.582 E15.8696
G1 X102.782 Y107.682 E15.8748
G1 X102.902 Y107.807 E15.88028
G1 X102.992 Y107.934 E15.8852
G1 X103.066 Y108.085 E15.89051
G1 X103.119 Y108.249 E15.89596
G1 X103.145 Y108.42 E15.90142
G1 X103.145 Y108.58 E15.90648
G0 F6000 X101.183 Y114.411
G1 F1200 X101.338 Y114.44 E15.91146
G1 X101.493 Y114.496 E15.91667
G1 X101.651 Y114.582 E15.92235
G1 X101.782 Y114.682 E15.92756
G1 X101.902 Y114.807 E15.93303
G1 X101.992 Y114.934 E15.93795
G1 X102.066 Y115.085 E15.94327
G1 X102.119 Y115.249 E15.94871
G1 X102.145 Y115.42 E15.95418
G1 X102.145 Y115.58 E15.95923
G1 X102.119 Y115.751 E15.9647
G1 X102.066 Y115.915 E15.97014
G1 X101.992 Y116.066 E15.97546
G1 X101.903 Y116.192 E15.98033
G1 X101.782 Y116.318 E15.98585
G1 X101.651 Y116.418 E15.99106
G1 X101.493 Y116.504 E15.99674
G1 X101.338 Y116.56 E16.00195
G1 X101.183 Y116.589 E16.00693
G1 X101.01 Y116.596 E16.0124
G1 X100.844 Y116.578 E16.01768
G1 X100.676 Y116.531 E16.02319
G1 X100.522 Y116.462 E16.02852
G1 X100.383 Y116.373 E16.03374
G1 X100.265 Y116.268 E16.03873
G1 X100.152 Y116.129 E16.04439
G1 X100.072 Y115.994 E16.04935
G1 X100.005 Y115.827 E16.05503
G1 X99.964 Y115.658 E16.06053
G1 X99.951 Y115.5 E16.06554
G1 X99.964 Y115.342 E16.07055
G1 X100.005 Y115.173 E16.07604
G1 X100.072 Y115.005 E16.08176
G1 X100.152 Y114.871 E16.08669
G1 X100.265 Y114.732 E16.09235
G1 X100.383 Y114.627 E16.09734
G1 X100.522 Y114.538 E16.10255
G1 X100.676 Y114.469 E16.10789
G1 X100.844 Y114.422 E16.1134
G1 X101.01 Y114.404 E16.11867
G1 X101.183 Y114.411 E16.12414
G0 F6000 X101.233 Y114.821
G1 F1200 X101.082 Y114.806 E16.12894
G1 X100.932 Y114.802 E16.13368
G1 X100.88 Y114.809 E16.13534
G1 X100.672 Y114.857 E16.14208
G1 X100.622 Y114.884 E16.14388
G1 X100.518 Y114.943 E16.14766
G1 X100.452 Y115.004 E16.1505
G1 X100.369 Y115.17 E16.15636
G1 X100.333 Y115.358 E16.16241
G1 X100.343 Y115.523 E16.16763
G1 X100.353 Y115.617 E16.17062
G1 X100.393 Y115.733 E16.1745
G1 X100.451 Y115.872 E16.17925
G1 X100.509 Y115.947 E16.18225
G1 X100.575 Y116.021 E16.18538
G1 X100.663 Y116.083 E16.18878
G1 X100.757 Y116.14 E16.19226
G1 X100.838 Y116.166 E16.19495
G1 X100.996 Y116.203 E16.20007
G1 X101.101 Y116.2 E16.20339
G1 X101.212 Y116.192 E16.20691
G1 X101.345 Y116.165 E16.2112
G1 X101.496 Y116.107 E16.21631
G1 X101.551 Y116.078 E16.21827
G1 X101.641 Y116.006 E16.22191
G1 X101.696 Y115.916 E16.22525
G1 X101.759 Y115.711 E16.23202
G1 X101.761 Y115.494 E16.23888
G1 X101.761 Y115.463 E16.23986
G1 X101.699 Y115.218 E16.24785
G1 X101.656 Y115.144 E16.25055
G1 X101.602 Y115.062 E16.25365
G1 X101.513 Y114.975 E16.25758
G1 X101.438 Y114.91 E16.26072
G1 X101.32 Y114.855 E16.26483
G1 X101.233 Y114.821 E16.26779
G1 F1500 E10.26779
G0 F6000 X96.203 Y114.822
G0 X96.207 Y120.657
G0 X96.711 Y121.161
G0 X123.442 Y121.161
G0 X123.946 Y120.657
G0 X123.949 Y115.004
G0 X118.072 Y115.005
G1 F1500 E16.26779
G1 F1200 X118.152 Y114.871 E16.27272
G1 X118.265 Y114.732 E16.27838
G1 X118.383 Y114.627 E16.28337
G1 X118.522 Y114.538 E16.28858
G1 X118.676 Y114.469 E16.29392
G1 X118.844 Y114.422 E16.29943
G1 X119.01 Y114.404 E16.3047
G1 X119.183 Y114.411 E16.31017
G1 X119.338 Y114.44 E16.31516
G1 X119.493 Y114.496 E16.32036
G1 X119.651 Y114.582 E16.32605
G1 X119.782 Y114.682 E16.33126
G1 X119.902 Y114.807 E16.33673
G1 X119.992 Y114.934 E16.34165
