;FLAVOR:Marlin
;TIME:5701
;Filament used: 2.31239m
;Layer height: 0.2
;MINX:90.702
;MINY:90.706
;MINZ:0.24
;MAXX:129.297
;MAXY:129.293
;MAXZ:24.04
;Generated with Cura_SteamEngine 4.8.0
M140 S70
M105
M190 S70
M104 S215
M105
M109 S215
M82 ;absolute extrusion mode
; Ender 3 Custom Start G-code
G92 E0 ; Reset Extruder
G28 ; Home all axes
G1 Z2.0 F3000 ; Move Z Axis up little to prevent scratching of Heat Bed
G1 X0.1 Y20 Z0.3 F5000.0 ; Move to start position
G1 X0.1 Y200.0 Z0.3 F1500.0 E15 ; Draw the first line
G1 X0.4 Y200.0 Z0.3 F5000.0 ; Move to side a little
G1 X0.4 Y20 Z0.3 F1500.0 E30 ; Draw the second line
G92 E0 ; Reset Extruder
G1 Z2.0 F3000 ; Move Z Axis up little to prevent scratching of Heat Bed
G1 X5 Y20 Z0.3 F5000.0 ; Move over to prevent blob squish
G92 E0
G92 E0
G1 F900 E-6
;LAYER_COUNT:115
;LAYER:-6
M107
G0 F9000 X96.384 Y96.613 Z0.24
;TYPE:SUPPORT-INTERFACE
G1 F900 E0
G1 F1125 X97.067 Y95.958 E0.07554
G1 X97.272 Y95.775 E0.09747
G1 X98.052 Y95.104 E0.17961
G1 X98.312 Y94.899 E0.20604
G1 X98.888 Y94.468 E0.26346
G1 X99.158 Y94.279 E0.28977
G1 X100.03 Y93.713 E0.37275
G1 X100.254 Y93.576 E0.39371
G1 X101.036 Y93.134 E0.46542
G1 X101.228 Y93.035 E0.48266
G1 X101.327 Y92.984 E0.49155
G1 X102.13 Y92.603 E0.5625
G1 X102.385 Y92.489 E0.5848
G1 X103.258 Y92.13 E0.66014
G1 X103.54 Y92.026 E0.68414
G1 X104.214 Y91.796 E0.74098
G1 X104.458 Y91.721 E0.76136
G1 X105.534 Y91.432 E0.8503
G1 X105.867 Y91.351 E0.87765
G1 X106.641 Y91.193 E0.94071
G1 X106.755 Y91.172 E0.94996
G1 X107.117 Y91.115 E0.97922
G1 X107.955 Y91.014 E1.04659
G1 X108.227 Y90.987 E1.06841
G1 X109.279 Y90.917 E1.15257
G1 X109.556 Y90.908 E1.1747
G1 X110.408 Y90.907 E1.24271
G1 X110.78 Y90.916 E1.27241
G1 X111.585 Y90.965 E1.33679
G1 X111.998 Y91.005 E1.36991
G1 X112.946 Y91.133 E1.44627
G1 X113.271 Y91.188 E1.47258
G1 X114.155 Y91.359 E1.54445
G1 X114.442 Y91.425 E1.56796
G1 X115.178 Y91.612 E1.62858
G1 X115.301 Y91.646 E1.63877
G1 X115.536 Y91.717 E1.65836
G1 X115.685 Y91.764 E1.67083
G1 X116.516 Y92.05 E1.74099
G1 X116.771 Y92.143 E1.76265
G1 X117.577 Y92.468 E1.83202
G1 X117.902 Y92.611 E1.86037
G1 X118.675 Y92.988 E1.92902
G1 X118.956 Y93.132 E1.95422
G1 X119.687 Y93.541 E2.02109
G1 X120.032 Y93.752 E2.05337
G1 X120.887 Y94.311 E2.13491
G1 X121.133 Y94.483 E2.15887
G1 X121.796 Y94.977 E2.22487
G1 X122.03 Y95.164 E2.24878
G1 X122.64 Y95.683 E2.31271
G1 X122.851 Y95.873 E2.33538
G1 X122.961 Y95.977 E2.34746
G1 X123.659 Y96.661 E2.42547
G1 X123.845 Y96.854 E2.44687
G1 X124.412 Y97.473 E2.51388
G1 X124.582 Y97.671 E2.53471
G1 X125.191 Y98.43 E2.61239
G1 X125.392 Y98.697 E2.63906
G1 X125.465 Y98.796 E2.64888
G1 X125.926 Y99.463 E2.7136
G1 X126.077 Y99.699 E2.73597
G1 X126.556 Y100.479 E2.80904
G1 X126.75 Y100.823 E2.84056
G1 X127.136 Y101.567 E2.90747
G1 X127.262 Y101.829 E2.93067
G1 X127.57 Y102.511 E2.99041
G1 X127.608 Y102.597 E2.99791
G1 X127.728 Y102.888 E3.02304
G1 X128.053 Y103.776 E3.09852
G1 X128.094 Y103.891 E3.10827
G1 X128.162 Y104.097 E3.12558
G1 X128.44 Y105.023 E3.20276
G1 X128.522 Y105.329 E3.22805
G1 X128.546 Y105.426 E3.23603
G1 X128.717 Y106.174 E3.29727
G1 X128.753 Y106.356 E3.31208
G1 X128.781 Y106.508 E3.32442
G1 X128.907 Y107.274 E3.38639
G1 X128.928 Y107.414 E3.39769
G1 X128.964 Y107.7 E3.4207
G1 X129.048 Y108.573 E3.49071
G1 X129.063 Y108.808 E3.5095
G1 X129.069 Y108.928 E3.5191
G1 X129.097 Y109.786 E3.58762
G1 X129.097 Y110.076 E3.61077
G1 X129.07 Y110.971 E3.68225
G1 X129.047 Y111.339 E3.71168
G1 X128.96 Y112.211 E3.78163
G1 X128.937 Y112.397 E3.79659
G1 X128.794 Y113.371 E3.87517
G1 X128.739 Y113.687 E3.90078
G1 X128.706 Y113.847 E3.91382
G1 X128.559 Y114.517 E3.96857
G1 X128.466 Y114.89 E3.99926
G1 X128.441 Y114.98 E4.00671
G1 X128.208 Y115.76 E4.0717
G1 X128.159 Y115.914 E4.0846
G1 X128.073 Y116.168 E4.106
G1 X127.747 Y117.035 E4.17994
G1 X127.671 Y117.222 E4.19605
G1 X127.229 Y118.234 E4.2842
G1 X127.079 Y118.545 E4.31177
G1 X126.707 Y119.252 E4.37554
G1 X126.556 Y119.518 E4.39995
G1 X126.068 Y120.322 E4.47503
G1 X125.916 Y120.555 E4.49724
G1 X125.421 Y121.269 E4.56659
G1 X125.178 Y121.595 E4.59904
G1 X124.772 Y122.09 E4.65015
G1 X124.332 Y122.619 E4.70507
G1 X123.853 Y123.144 E4.7618
G1 X123.66 Y123.344 E4.78399
G1 X123.561 Y123.443 E4.79516
G1 X122.965 Y124.023 E4.86155
G1 X122.768 Y124.202 E4.8828
G1 X122.68 Y124.279 E4.89213
G1 X121.953 Y124.889 E4.96789
G1 X121.739 Y125.058 E4.98965
G1 X121.085 Y125.546 E5.05479
G1 X120.871 Y125.697 E5.0757
G1 X120.043 Y126.241 E5.15478
G1 X119.961 Y126.293 E5.16253
G1 X119.669 Y126.467 E5.18966
G1 X118.997 Y126.845 E5.25121
G1 X118.759 Y126.969 E5.27263
G1 X117.913 Y127.375 E5.34754
G1 X117.817 Y127.418 E5.35593
G1 X117.633 Y127.5 E5.37201
G1 X116.766 Y127.854 E5.44677
G1 X116.474 Y127.962 E5.47162
G1 X115.561 Y128.27 E5.54853
G1 X115.296 Y128.349 E5.57061
G1 X114.415 Y128.575 E5.64321
G1 X114.354 Y128.588 E5.64819
G1 X114.118 Y128.648 E5.66763
G1 X113.988 Y128.678 E5.67828
G1 X113.2 Y128.826 E5.74228
G1 X112.932 Y128.869 E5.76394
G1 X111.951 Y128.996 E5.84291
G1 X111.667 Y129.022 E5.86567
G1 X110.745 Y129.079 E5.93941
G1 X110.439 Y129.091 E5.96385
G1 X110.343 Y129.093 E5.97152
G1 X109.618 Y129.092 E6.02939
G1 X109.286 Y129.08 E6.05591
G1 X108.185 Y129.006 E6.144
G1 X107.892 Y128.98 E6.16748
G1 X107.791 Y128.97 E6.17558
G1 X107.186 Y128.893 E6.22426
G1 X106.849 Y128.838 E6.25152
G1 X106.001 Y128.676 E6.32043
G1 X105.879 Y128.649 E6.33041
G1 X105.673 Y128.596 E6.34739
G1 X105.501 Y128.558 E6.36145
G1 X104.757 Y128.363 E6.42284
G1 X104.391 Y128.254 E6.45333
G1 X103.48 Y127.948 E6.53004
G1 X103.197 Y127.842 E6.55416
G1 X102.44 Y127.538 E6.61928
G1 X102.078 Y127.381 E6.65078
G1 X101.275 Y126.99 E6.72207
G1 X100.981 Y126.837 E6.74853
G1 X100.292 Y126.452 E6.81153
G1 X99.959 Y126.252 E6.84254
G1 X99.246 Y125.783 E6.91066
G1 X99.134 Y125.707 E6.92146
G1 X98.883 Y125.527 E6.94612
G1 X98.169 Y124.985 E7.01768
G1 X97.988 Y124.838 E7.03629
G1 X97.259 Y124.224 E7.11237
G1 X97.027 Y124.013 E7.1374
G1 X96.37 Y123.38 E7.21023
G1 X96.12 Y123.123 E7.23885
G1 X96.054 Y123.052 E7.24659
G1 X95.573 Y122.513 E7.30425
G1 X95.314 Y122.202 E7.33656
G1 X95.019 Y121.824 E7.37484
G1 X94.795 Y121.547 E7.40327
G1 X94.627 Y121.327 E7.42537
G1 X94.549 Y121.22 E7.43594
G1 X94.145 Y120.645 E7.49203
G1 X94.039 Y120.483 E7.50749
G1 X93.962 Y120.354 E7.51948
G1 X93.841 Y120.171 E7.53699
G1 X93.435 Y119.506 E7.59919
G1 X93.264 Y119.201 E7.6271
G1 X92.878 Y118.461 E7.69372
G1 X92.733 Y118.163 E7.72018
G1 X92.696 Y118.084 E7.72714
G1 X92.34 Y117.271 E7.79799
G1 X92.235 Y117.006 E7.82074
G1 X91.891 Y116.067 E7.90057
G1 X91.819 Y115.855 E7.91844
G1 X91.78 Y115.733 E7.92866
G1 X91.579 Y115.065 E7.98435
G1 X91.489 Y114.717 E8.01304
G1 X91.255 Y113.643 E8.10078
G1 X91.213 Y113.425 E8.1185
G1 X91.084 Y112.633 E8.18256
G1 X91.043 Y112.323 E8.20752
G1 X91.028 Y112.192 E8.21804
G1 X90.95 Y111.349 E8.28562
G1 X90.931 Y111.026 E8.31145
G1 X90.903 Y110.124 E8.38349
G1 X90.903 Y109.842 E8.406
G1 X90.907 Y109.682 E8.41877
G1 X90.942 Y108.816 E8.48796
G1 X90.955 Y108.622 E8.50348
G1 X91.048 Y107.654 E8.5811
G1 X91.064 Y107.514 E8.59235
G1 X91.105 Y107.218 E8.61621
G1 X91.232 Y106.466 E8.67708
G1 X91.279 Y106.225 E8.69668
G1 X91.522 Y105.159 E8.78396
G1 X91.608 Y104.839 E8.81041
G1 X91.813 Y104.15 E8.86779
G1 X91.939 Y103.776 E8.89929
G1 X92.245 Y102.945 E8.96998
G1 X92.364 Y102.655 E8.995
G1 X92.691 Y101.926 E9.05878
G1 X92.75 Y101.799 E9.06996
G1 X92.881 Y101.533 E9.09363
G1 X93.296 Y100.755 E9.16402
G1 X93.441 Y100.494 E9.18785
G1 X93.942 Y99.666 E9.2651
G1 X94.113 Y99.402 E9.29021
G1 X94.585 Y98.727 E9.35596
G1 X94.731 Y98.53 E9.37553
G1 X95.436 Y97.639 E9.46623
G1 X95.677 Y97.361 E9.49559
G1 X96.086 Y96.918 E9.54372
G1 X96.182 Y96.815 E9.55496
G1 X96.384 Y96.613 E9.57777
G0 F9000 X96 Y97.011
G1 F1125 X96 Y122.991 E11.6516
G1 F900 E5.6516
G0 F9000 X97.6 Y124.511
G1 F900 E11.6516
G1 F1125 X97.6 Y95.492 E13.96802
G1 F900 E7.96802
G0 F9000 X99.2 Y94.251
G1 F900 E13.96802
G1 F1125 X99.2 Y125.751 E16.48249
G1 F900 E10.48249
G0 F9000 X100.8 Y126.735
G1 F900 E16.48249
G1 F1125 X100.8 Y93.267 E19.15405
G1 F900 E13.15405
G0 F9000 X102.4 Y92.482
G1 F900 E19.15405
G1 F1125 X102.4 Y127.52 E21.95094
G1 F900 E15.95094
G0 F9000 X104 Y128.122
G1 F900 E21.95094
G1 F1125 X104 Y91.869 E24.84481
G1 F900 E18.84481
G0 F9000 X105.6 Y91.415
G1 F900 E24.84481
G1 F1125 X105.6 Y128.579 E27.8114
G1 F900 E21.8114
G0 F9000 X107.2 Y128.894
G1 F900 E27.8114
G1 F1125 X107.2 Y91.104 E30.82796
G1 F900 E24.82796
G0 F9000 X108.8 Y90.948
G1 F900 E30.82796
G1 F1125 X108.8 Y129.047 E33.86919
G1 F900 E27.86919
G0 F9000 X110.4 Y129.092
G1 F900 E33.86919
G1 F1125 X110.4 Y90.907 E36.91728
G1 F900 E30.91728
G0 F9000 X112 Y91.006
G1 F900 E36.91728
G1 F1125 X112 Y128.99 E39.94932
G1 F900 E33.94932
G0 F9000 X113.6 Y128.751
G1 F900 E39.94932
G1 F1125 X113.6 Y91.252 E42.94266
G1 F900 E36.94266
G0 F9000 X115.2 Y91.619
G1 F900 E42.94266
G1 F1125 X115.2 Y128.374 E45.8766
G1 F900 E39.8766
G0 F9000 X116.8 Y127.841
G1 F900 E45.8766
G1 F1125 X116.8 Y92.155 E48.72521
G1 F900 E42.72521
G0 F9000 X118.4 Y92.854
G1 F900 E48.72521
G1 F1125 X118.4 Y127.142 E51.46223
G1 F900 E45.46223
G0 F9000 X120 Y126.269
G1 F900 E51.46223
G1 F1125 X120 Y93.733 E54.05939
G1 F900 E48.05939
G0 F9000 X121.6 Y94.831
G1 F900 E54.05939
G1 F1125 X121.6 Y125.162 E56.48054
G1 F900 E50.48054
G0 F9000 X123.2 Y123.795
G1 F900 E56.48054
G1 F1125 X123.2 Y96.212 E58.68234
G1 F900 E52.68234
G0 F9000 X124.8 Y97.943
G1 F900 E58.68234
G1 F1125 X124.8 Y122.056 E60.60714
G1 F900 E54.60714
G0 F9000 X126.4 Y119.776
G1 F900 E60.60714
G1 F1125 X126.4 Y100.225 E62.16779
G1 F900 E56.16779
G0 F9000 X128 Y103.632
G1 F900 E62.16779
G1 F1125 X128 Y116.363 E63.18403
G1 F900 E57.18403
G0 F9000 X94.4 Y121.007
G1 F900 E63.18403
G1 F1125 X94.4 Y98.991 E64.94144
G1 F900 E58.94144
G0 F9000 X92.8 Y101.697
G1 F900 E64.94144
G1 F1125 X92.8 Y118.3 E66.26677
G1 F900 E60.26677
G0 F9000 X91.2 Y113.345
G1 F900 E66.26677
G1 F1125 X91.2 Y106.655 E66.80079
G1 F900 E60.80079
G0 F300 X91.2 Y106.655 Z0.54
G0 F9000 X95.254 Y122.124
;TIME_ELAPSED:72.546140
;LAYER:-5
;TYPE:SUPPORT
G1 F900 E66.80079
G1 F1125 X97.854 Y124.724 E67.16768
G1 X97.259 Y124.223 E67.24529
G1 X97.027 Y124.011 E67.27665
G1 X96.37 Y123.378 E67.36768
G1 X96.119 Y123.122 E67.40345
G1 X96.054 Y123.051 E67.41306
G1 X95.573 Y122.512 E67.48514
G1 X95.314 Y122.201 E67.52553
G1 F900 E61.52553
G0 F9000 X97.854 Y124.724
G1 F900 E67.52553
G1 F1125 X97.988 Y124.836 E67.54295
G1 X98.169 Y124.983 E67.56622
G1 X98.882 Y125.526 E67.65564
G1 X99.134 Y125.705 E67.68649
G1 X99.245 Y125.782 E67.69997
G1 X99.959 Y126.251 E67.7852
G1 X100.292 Y126.451 E67.82396
G1 X100.981 Y126.835 E67.90267
G1 X101.274 Y126.989 E67.9357
G1 X101.778 Y127.233 E67.99157
G1 X92.758 Y118.214 E69.26432
G1 X92.732 Y118.161 E69.27021
G1 X92.695 Y118.083 E69.27882
G1 X92.34 Y117.27 E69.36734
G1 X92.235 Y117.004 E69.39587
G1 X91.89 Y116.066 E69.4956
G1 X91.821 Y115.862 E69.51709
G1 X104.12 Y128.161 E71.25261
G1 X104.39 Y128.252 E71.28104
G1 X104.757 Y128.361 E71.31924
G1 X105.501 Y128.556 E71.39598
G1 X105.672 Y128.595 E71.41348
G1 X105.879 Y128.648 E71.4348
G1 X106 Y128.675 E71.44717
G1 X106.058 Y128.685 E71.45305
G1 X91.321 Y113.948 E73.5326
G1 X91.254 Y113.641 E73.56395
G1 X91.212 Y113.424 E73.586
G1 X91.083 Y112.632 E73.66607
G1 X91.042 Y112.322 E73.69727
G1 X91.033 Y112.246 E73.70491
G1 X107.75 Y128.963 E76.06386
G1 X107.791 Y128.969 E76.06799
G1 X107.891 Y128.979 E76.07802
G1 X108.185 Y129.005 E76.10747
G1 X109.279 Y129.078 E76.21687
G1 X90.921 Y110.72 E78.80739
G1 X90.902 Y110.123 E78.86699
G1 X90.903 Y109.841 E78.89512
G1 X90.907 Y109.68 E78.91119
G1 X90.921 Y109.306 E78.94854
G1 X110.695 Y129.08 E81.73886
G1 X110.744 Y129.078 E81.74376
G1 X111.667 Y129.02 E81.83603
G1 X111.951 Y128.995 E81.86448
G1 X112.016 Y128.986 E81.87103
G1 X91.015 Y107.985 E84.8345
G1 X91.047 Y107.653 E84.86778
G1 X91.064 Y107.512 E84.88195
G1 X91.105 Y107.217 E84.91167
G1 X91.184 Y106.741 E84.95981
G1 X113.258 Y128.814 E88.07462
G1 X113.987 Y128.677 E88.14863
G1 X114.117 Y128.647 E88.16195
G1 X114.354 Y128.586 E88.18637
G1 X114.414 Y128.573 E88.19249
G1 X114.428 Y128.57 E88.19392
G1 X91.428 Y105.57 E91.43947
G1 X91.522 Y105.158 E91.48163
G1 X91.608 Y104.838 E91.5147
G1 X91.723 Y104.45 E91.55508
G1 X115.545 Y128.273 E94.91669
G1 X115.561 Y128.269 E94.91833
G1 X116.473 Y127.961 E95.01438
G1 X116.6 Y127.914 E95.0279
G1 X92.079 Y103.393 E98.48807
G1 X92.244 Y102.944 E98.5358
G1 X92.364 Y102.654 E98.56712
G1 X92.484 Y102.384 E98.5966
G1 X117.609 Y127.509 E102.14201
G1 X117.632 Y127.499 E102.14451
G1 X117.817 Y127.417 E102.1647
G1 X117.912 Y127.373 E102.17515
G1 X118.571 Y127.057 E102.24808
G1 X92.938 Y101.423 E105.86524
G1 X93.295 Y100.754 E105.9409
G1 X93.433 Y100.504 E105.96939
G1 X119.493 Y126.564 E109.64674
G1 X119.669 Y126.466 E109.66684
G1 X119.96 Y126.292 E109.70067
G1 X120.043 Y126.24 E109.71045
G1 X120.368 Y126.025 E109.74933
G1 X93.967 Y99.624 E113.47479
G1 X94.113 Y99.4 E113.50147
G1 X94.543 Y98.785 E113.57635
G1 X121.209 Y125.452 E117.33928
G1 X121.739 Y125.056 E117.4053
G1 X121.952 Y124.888 E117.43237
G1 X122.01 Y124.838 E117.44001
G1 X95.158 Y97.987 E121.22904
G1 X95.436 Y97.638 E121.27356
G1 X95.677 Y97.36 E121.31028
G1 X95.805 Y97.22 E121.3292
G1 X122.777 Y124.191 E125.13517
G1 X122.964 Y124.022 E125.16032
G1 X123.5 Y123.5 E125.23498
G1 X96.5 Y96.5 E129.04497
G1 X97.066 Y95.957 E129.12323
G1 X97.227 Y95.813 E129.14478
G1 X124.189 Y122.774 E132.94934
G1 X124.331 Y122.618 E132.97039
G1 X124.771 Y122.089 E133.03905
G1 X124.837 Y122.009 E133.0494
G1 X97.987 Y95.158 E136.83829
G1 X98.05 Y95.103 E136.84664
G1 X98.311 Y94.898 E136.87975
G1 X98.786 Y94.543 E136.93892
G1 X125.458 Y121.215 E140.70263
G1 X125.915 Y120.555 E140.78273
G1 X126.033 Y120.376 E140.80412
G1 X99.629 Y93.973 E144.52994
G1 X100.028 Y93.712 E144.57752
G1 X100.253 Y93.575 E144.6038
G1 X100.505 Y93.434 E144.63261
G1 X126.567 Y119.496 E148.31024
G1 X126.706 Y119.252 E148.33826
G1 X127.062 Y118.576 E148.4145
G1 X101.423 Y92.938 E152.03237
G1 X102.129 Y92.603 E152.11034
G1 X102.384 Y92.488 E152.13825
G0 F9000 X102.387 Y92.488
G1 F1125 X127.504 Y117.604 E155.68246
G1 X127.67 Y117.222 E155.72402
G1 X127.746 Y117.035 E155.74416
G1 X127.911 Y116.597 E155.79086
G1 X103.393 Y92.08 E159.25055
G1 X103.539 Y92.026 E159.26608
G1 X104.213 Y91.796 E159.33714
G1 X104.45 Y91.723 E159.36188
G1 X128.271 Y115.544 E162.72328
G1 X128.44 Y114.979 E162.78213
G1 X128.465 Y114.89 E162.79135
G1 X128.558 Y114.516 E162.82981
G1 X128.576 Y114.434 E162.83818
G1 X105.566 Y91.423 E166.08521
G1 X105.866 Y91.351 E166.116
G1 X106.64 Y91.192 E166.19484
G1 X106.732 Y91.176 E166.20416
G1 X128.81 Y113.254 E169.3196
G1 X128.935 Y112.396 E169.40612
G1 X128.959 Y112.21 E169.42483
G1 X128.979 Y112.009 E169.44498
G1 X107.982 Y91.011 E172.40796
G1 X108.226 Y90.986 E172.43243
G1 X109.277 Y90.916 E172.53753
G1 X109.301 Y90.916 E172.53993
G1 X129.077 Y110.692 E175.33054
G1 X129.095 Y110.076 E175.39203
G1 X129.095 Y109.786 E175.42096
G1 X129.08 Y109.281 E175.47137
G1 X110.713 Y90.914 E178.06316
G1 X110.778 Y90.916 E178.06965
G1 X111.584 Y90.965 E178.15022
G1 X111.997 Y91.004 E178.19161
G1 X112.252 Y91.039 E178.21729
G1 X128.968 Y107.755 E180.5761
G1 X128.962 Y107.7 E180.58162
G1 X128.927 Y107.414 E180.61037
G1 X128.906 Y107.274 E180.6245
G1 X128.78 Y106.507 E180.70205
G1 X128.752 Y106.355 E180.71748
G1 X128.716 Y106.174 E180.73589
G1 X128.692 Y106.064 E180.74712
G1 X113.946 Y91.318 E182.82794
G1 X114.154 Y91.358 E182.84908
G1 X114.44 Y91.424 E182.87837
