;FLAVOR:Marlin
;TIME:2401
;Filament used: 1.07938m
;Layer height: 0.2
;MINX:88.5
;MINY:84.384
;MINZ:0.2
;MAXX:131.5
;MAXY:135.616
;MAXZ:10
;Generated with Cura_SteamEngine 4.8.0
M140 S70
M105
M190 S70
M104 S215
M105
M109 S215
M82 ;absolute extrusion mode
; Ender 3 Custom Start G-code
G92 E0 ; Reset Extruder
G28 ; Home all axes
G1 Z2.0 F3000 ; Move Z Axis up little to prevent scratching of Heat Bed
G1 X0.1 Y20 Z0.3 F5000.0 ; Move to start position
G1 X0.1 Y200.0 Z0.3 F1500.0 E15 ; Draw the first line
G1 X0.4 Y200.0 Z0.3 F5000.0 ; Move to side a little
G1 X0.4 Y20 Z0.3 F1500.0 E30 ; Draw the second line
G92 E0 ; Reset Extruder
G1 Z2.0 F3000 ; Move Z Axis up little to prevent scratching of Heat Bed
G1 X5 Y20 Z0.3 F5000.0 ; Move over to prevent blob squish
G92 E0
G92 E0
G1 F1500 E-6
;LAYER_COUNT:50
;LAYER:0
M107
G0 F6000 X91.698 Y87.648 Z0.2
;TYPE:SKIRT
G1 F1500 E0
G1 F1200 X92.386 Y87.011 E0.02963
G1 X93.126 Y86.435 E0.05926
G1 X93.912 Y85.923 E0.0889
G1 X94.739 Y85.481 E0.11852
G1 X95.601 Y85.111 E0.14816
G1 X96.491 Y84.815 E0.1778
G1 X97.403 Y84.597 E0.20743
G1 X98.33 Y84.456 E0.23706
G1 X99.201 Y84.397 E0.26464
G1 X99.522 Y84.388 E0.27479
G1 X99.83 Y84.384 E0.28452
G1 X119.793 Y84.384 E0.91529
G1 X120.649 Y84.395 E0.94234
G1 X121.585 Y84.449 E0.97197
G1 X122.513 Y84.581 E1.00158
G1 X123.427 Y84.793 E1.03123
G1 X124.319 Y85.082 E1.06086
G1 X125.184 Y85.445 E1.0905
G1 X126.014 Y85.881 E1.12012
G1 X126.805 Y86.386 E1.14977
G1 X127.549 Y86.957 E1.17941
G1 X128.242 Y87.589 E1.20904
G1 X128.879 Y88.277 E1.23867
G1 X129.454 Y89.018 E1.2683
G1 X129.965 Y89.804 E1.29793
G1 X130.407 Y90.632 E1.32758
G1 X130.776 Y91.494 E1.35721
G1 X131.071 Y92.384 E1.38684
G1 X131.289 Y93.296 E1.41647
G1 X131.429 Y94.224 E1.44612
G1 X131.487 Y95.085 E1.47339
G1 X131.496 Y95.405 E1.4835
G1 X131.5 Y95.714 E1.49327
G1 X131.499 Y124.016 E2.38753
G1 X131.49 Y124.743 E2.4105
G1 X131.439 Y125.68 E2.44015
G1 X131.307 Y126.608 E2.46977
G1 X131.098 Y127.522 E2.49939
G1 X130.811 Y128.415 E2.52903
G1 X130.449 Y129.281 E2.55869
G1 X130.015 Y130.112 E2.58831
G1 X129.511 Y130.903 E2.61795
G1 X128.942 Y131.648 E2.64757
G1 X128.311 Y132.343 E2.67723
G1 X127.624 Y132.981 E2.70685
G1 X126.885 Y133.558 E2.73648
G1 X126.099 Y134.07 E2.76612
G1 X125.273 Y134.513 E2.79573
G1 X124.411 Y134.885 E2.8254
G1 X123.522 Y135.181 E2.855
G1 X122.61 Y135.401 E2.88465
G1 X121.683 Y135.542 E2.91427
G1 X120.799 Y135.603 E2.94227
G1 X120.478 Y135.612 E2.95242
G1 X120.17 Y135.616 E2.96215
G1 X100.065 Y135.615 E3.59741
G1 X99.367 Y135.606 E3.61947
G1 X98.431 Y135.554 E3.64909
G1 X97.502 Y135.422 E3.67874
G1 X96.588 Y135.212 E3.70837
G1 X95.695 Y134.925 E3.73801
G1 X94.83 Y134.562 E3.76765
G1 X93.999 Y134.128 E3.79727
G1 X93.208 Y133.624 E3.82691
G1 X92.463 Y133.054 E3.85655
G1 X91.769 Y132.423 E3.88618
G1 X91.132 Y131.736 E3.91579
G1 X90.555 Y130.996 E3.94543
G1 X90.043 Y130.21 E3.97507
G1 X89.6 Y129.383 E4.00472
G1 X89.229 Y128.522 E4.03434
G1 X88.933 Y127.632 E4.06398
G1 X88.714 Y126.72 E4.09361
G1 X88.573 Y125.793 E4.12324
G1 X88.513 Y124.904 E4.15139
G1 X88.504 Y124.571 E4.16192
G1 X88.5 Y124.274 E4.17131
G1 X88.501 Y95.909 E5.06756
G1 X88.51 Y95.244 E5.08857
G1 X88.563 Y94.308 E5.11819
G1 X88.695 Y93.379 E5.14784
G1 X88.906 Y92.465 E5.17748
G1 X89.194 Y91.573 E5.2071
G1 X89.557 Y90.708 E5.23674
G1 X89.992 Y89.877 E5.26638
G1 X90.496 Y89.087 E5.29599
G1 X91.066 Y88.342 E5.32563
G1 X91.698 Y87.648 E5.35528
G0 F6000 X92.089 Y87.823
G1 F1200 X92.774 Y87.207 E5.38439
G1 X93.51 Y86.654 E5.41348
G1 X94.291 Y86.166 E5.44258
G1 X95.111 Y85.748 E5.47166
G1 X95.965 Y85.403 E5.50076
G1 X96.845 Y85.133 E5.52985
G1 X97.745 Y84.941 E5.55893
G1 X98.659 Y84.827 E5.58803
G1 X99.212 Y84.797 E5.60553
G1 X99.533 Y84.788 E5.61568
G1 X99.83 Y84.784 E5.62506
G1 X119.793 Y84.784 E6.25583
G1 X120.643 Y84.795 E6.28269
G1 X121.562 Y84.848 E6.31178
G1 X122.473 Y84.981 E6.34087
G1 X123.369 Y85.192 E6.36996
G1 X124.243 Y85.48 E6.39903
G1 X125.09 Y85.843 E6.42815
G1 X125.901 Y86.278 E6.45723
G1 X126.671 Y86.782 E6.48631
G1 X127.395 Y87.351 E6.5154
G1 X128.067 Y87.981 E6.54451
G1 X128.682 Y88.666 E6.57359
G1 X129.235 Y89.402 E6.60268
G1 X129.722 Y90.183 E6.63176
G1 X130.139 Y91.004 E6.66086
G1 X130.484 Y91.858 E6.68996
G1 X130.753 Y92.738 E6.71904
G1 X130.945 Y93.639 E6.74815
G1 X131.058 Y94.552 E6.77721
G1 X131.087 Y95.096 E6.79443
G1 X131.096 Y95.416 E6.80454
G1 X131.1 Y95.714 E6.81396
G1 X131.099 Y124.011 E7.70806
G1 X131.09 Y124.738 E7.73104
G1 X131.039 Y125.657 E7.76012
G1 X130.908 Y126.569 E7.78923
G1 X130.698 Y127.465 E7.81831
G1 X130.412 Y128.34 E7.8474
G1 X130.051 Y129.187 E7.87649
G1 X129.617 Y129.999 E7.90558
G1 X129.115 Y130.771 E7.93468
G1 X128.547 Y131.496 E7.96378
G1 X127.919 Y132.169 E7.99286
G1 X127.235 Y132.785 E8.02195
G1 X126.5 Y133.339 E8.05103
G1 X125.72 Y133.828 E8.08012
G1 X124.9 Y134.247 E8.10922
G1 X124.047 Y134.593 E8.1383
G1 X123.167 Y134.864 E8.16739
G1 X122.267 Y135.057 E8.19648
G1 X121.353 Y135.172 E8.22559
G1 X120.788 Y135.203 E8.24347
G1 X120.467 Y135.212 E8.25361
G1 X120.17 Y135.216 E8.263
G1 X100.07 Y135.215 E8.8981
G1 X99.372 Y135.206 E8.92016
G1 X98.453 Y135.154 E8.94924
G1 X97.542 Y135.023 E8.97832
G1 X96.646 Y134.813 E9.0074
G1 X95.771 Y134.526 E9.0365
G1 X94.924 Y134.164 E9.0656
G1 X94.112 Y133.73 E9.09469
G1 X93.341 Y133.228 E9.12376
G1 X92.616 Y132.66 E9.15286
G1 X91.943 Y132.031 E9.18197
G1 X91.328 Y131.347 E9.21103
G1 X90.774 Y130.612 E9.24012
G1 X90.286 Y129.831 E9.26921
G1 X89.867 Y129.011 E9.29831
G1 X89.521 Y128.158 E9.3274
G1 X89.251 Y127.278 E9.35648
G1 X89.058 Y126.377 E9.3856
G1 X88.944 Y125.464 E9.41467
G1 X88.913 Y124.893 E9.43274
G1 X88.904 Y124.56 E9.44326
G1 X88.9 Y124.274 E9.4523
G1 X88.901 Y95.915 E10.34836
G1 X88.91 Y95.25 E10.36938
G1 X88.962 Y94.33 E10.39849
G1 X89.094 Y93.419 E10.42758
G1 X89.305 Y92.523 E10.45666
G1 X89.592 Y91.648 E10.48576
G1 X89.955 Y90.802 E10.51485
G1 X90.389 Y89.99 E10.54394
G1 X90.892 Y89.219 E10.57303
G1 X91.461 Y88.495 E10.60212
G1 X92.089 Y87.823 E10.63119
G0 F6000 X92.481 Y88.001
G1 F1200 X93.162 Y87.408 E10.65972
G1 X93.894 Y86.878 E10.68827
G1 X94.669 Y86.415 E10.7168
G1 X95.482 Y86.022 E10.74533
G1 X96.327 Y85.702 E10.77388
G1 X97.196 Y85.459 E10.80239
G1 X98.084 Y85.293 E10.83094
G1 X99.223 Y85.197 E10.86705
G1 X99.544 Y85.188 E10.8772
G1 X99.83 Y85.184 E10.88624
G1 X119.793 Y85.184 E11.51701
G1 X120.637 Y85.195 E11.54368
G1 X121.539 Y85.248 E11.57223
G1 X122.432 Y85.38 E11.60075
G1 X123.31 Y85.591 E11.62928
G1 X124.166 Y85.879 E11.65782
G1 X124.993 Y86.241 E11.68635
G1 X125.785 Y86.676 E11.7149
G1 X126.536 Y87.178 E11.74344
G1 X127.239 Y87.745 E11.77198
G1 X127.889 Y88.372 E11.80051
G1 X128.481 Y89.054 E11.82905
G1 X129.011 Y89.785 E11.85758
G1 X129.473 Y90.561 E11.88611
G1 X129.866 Y91.374 E11.91465
G1 X130.184 Y92.219 E11.94317
G1 X130.427 Y93.089 E11.97172
G1 X130.592 Y93.977 E12.00025
G1 X130.687 Y95.107 E12.03609
G1 X130.696 Y95.427 E12.0462
G1 X130.7 Y95.714 E12.05527
G1 X130.699 Y124.006 E12.94922
G1 X130.69 Y124.733 E12.97219
G1 X130.639 Y125.635 E13.00073
G1 X130.508 Y126.529 E13.02928
G1 X130.299 Y127.407 E13.0578
G1 X130.013 Y128.264 E13.08635
G1 X129.652 Y129.092 E13.11489
G1 X129.22 Y129.884 E13.14339
G1 X128.719 Y130.636 E13.17195
G1 X128.153 Y131.34 E13.20049
G1 X127.528 Y131.991 E13.229
G1 X126.847 Y132.585 E13.25756
G1 X126.116 Y133.116 E13.2861
G1 X125.342 Y133.58 E13.31462
G1 X124.529 Y133.974 E13.34316
G1 X123.685 Y134.294 E13.37168
G1 X122.815 Y134.539 E13.40024
G1 X121.928 Y134.705 E13.42876
G1 X120.777 Y134.803 E13.46526
G1 X120.456 Y134.812 E13.4754
G1 X120.17 Y134.816 E13.48444
G1 X100.075 Y134.815 E14.11939
G1 X99.377 Y134.806 E14.14144
G1 X98.476 Y134.755 E14.16996
G1 X97.582 Y134.623 E14.19851
G1 X96.704 Y134.414 E14.22703
G1 X95.847 Y134.127 E14.25558
G1 X95.02 Y133.766 E14.2841
G1 X94.227 Y133.333 E14.31265
G1 X93.476 Y132.832 E14.34117
G1 X92.772 Y132.266 E14.36971
G1 X92.121 Y131.64 E14.39825
G1 X91.528 Y130.959 E14.42678
G1 X90.998 Y130.228 E14.45531
G1 X90.534 Y129.453 E14.48385
G1 X90.14 Y128.64 E14.5124
G1 X89.82 Y127.796 E14.54092
G1 X89.576 Y126.926 E14.56947
G1 X89.41 Y126.038 E14.59801
G1 X89.313 Y124.883 E14.63464
G1 X89.304 Y124.55 E14.64516
G1 X89.3 Y124.274 E14.65388
G1 X89.301 Y95.92 E15.54979
G1 X89.31 Y95.255 E15.5708
G1 X89.362 Y94.353 E15.59935
G1 X89.494 Y93.46 E15.62787
G1 X89.704 Y92.582 E15.6564
G1 X89.991 Y91.725 E15.68496
G1 X90.353 Y90.898 E15.71348
G1 X90.786 Y90.106 E15.742
G1 X91.288 Y89.355 E15.77054
G1 X91.855 Y88.651 E15.79911
G1 X92.481 Y88.001 E15.82762
G1 F1500 E9.82762
;MESH:casque_b3.stl
G0 F6000 X99.088 Y94.973
G0 X99.92 Y95.804
G0 X100.282 Y123.834
G0 X119.9 Y124.016
;TYPE:WALL-INNER
G1 F1500 E15.82762
G1 F1200 X100.1 Y124.016 E16.45324
G1 X100.1 Y95.984 E17.33897
G1 X119.9 Y95.984 E17.9646
G1 X119.9 Y124.016 E18.85033
G0 F6000 X120.3 Y124.416
;TYPE:WALL-OUTER
G1 F1200 X99.7 Y124.416 E19.50123
G1 X99.7 Y95.584 E20.41224
G1 X120.3 Y95.584 E21.06314
G1 X120.3 Y124.416 E21.97415
G0 F6000 X120.03 Y124.146
G0 X119.79 Y123.626
G0 X119.51 Y123.626
;TYPE:SKIN
G1 F1200 X100.49 Y123.626 E22.57512
G1 X100.49 Y96.374 E23.43621
G1 X119.51 Y96.374 E24.03719
G1 X119.51 Y123.626 E24.89827
G0 F6000 X119.79 Y123.626
G0 X100.837 Y123.906
G0 X100.837 Y123.465
G1 F1200 X100.649 Y123.276 E24.90669
G0 F6000 X100.649 Y122.711
G1 F1200 X101.403 Y123.465 E24.94039
G0 F6000 X101.969 Y123.465
G1 F1200 X100.649 Y122.145 E24.99937
G0 F6000 X100.649 Y121.579
G1 F1200 X102.534 Y123.465 E25.08362
G0 F6000 X103.1 Y123.465
G1 F1200 X100.649 Y121.014 E25.19315
G0 F6000 X100.649 Y120.448
G1 F1200 X103.666 Y123.465 E25.32796
G0 F6000 X104.231 Y123.465
G1 F1200 X100.649 Y119.882 E25.48805
G0 F6000 X100.649 Y119.317
G1 F1200 X104.797 Y123.465 E25.6734
G0 F6000 X105.363 Y123.465
G1 F1200 X100.649 Y118.751 E25.88405
G0 F6000 X100.649 Y118.185
G1 F1200 X105.928 Y123.465 E26.11996
G0 F6000 X106.494 Y123.465
G1 F1200 X100.649 Y117.62 E26.38114
G0 F6000 X100.649 Y117.054
G1 F1200 X107.06 Y123.465 E26.66762
G0 F6000 X107.625 Y123.465
G1 F1200 X100.649 Y116.488 E26.97937
G0 F6000 X100.649 Y115.923
G1 F1200 X108.191 Y123.465 E27.31638
G0 F6000 X108.757 Y123.465
G1 F1200 X100.649 Y115.357 E27.67869
G0 F6000 X100.649 Y114.791
G1 F1200 X109.322 Y123.465 E28.06626
G0 F6000 X109.888 Y123.465
G1 F1200 X100.649 Y114.226 E28.47911
G0 F6000 X100.649 Y113.66
G1 F1200 X110.454 Y123.465 E28.91725
G0 F6000 X111.02 Y123.465
G1 F1200 X100.649 Y113.094 E29.38068
G0 F6000 X100.649 Y112.528
G1 F1200 X111.585 Y123.465 E29.86937
G0 F6000 X112.151 Y123.465
G1 F1200 X100.649 Y111.963 E30.38334
G0 F6000 X100.649 Y111.397
G1 F1200 X112.717 Y123.465 E30.9226
G0 F6000 X113.282 Y123.465
G1 F1200 X100.649 Y110.831 E31.48713
G0 F6000 X100.649 Y110.266
G1 F1200 X113.848 Y123.465 E32.07693
G0 F6000 X114.414 Y123.465
G1 F1200 X100.649 Y109.7 E32.69202
G0 F6000 X100.649 Y109.134
G1 F1200 X114.979 Y123.465 E33.33238
G0 F6000 X115.545 Y123.465
G1 F1200 X100.649 Y108.569 E33.99801
G0 F6000 X100.649 Y108.003
G1 F1200 X116.111 Y123.465 E34.68893
G0 F6000 X116.676 Y123.465
G1 F1200 X100.649 Y107.437 E35.40512
G0 F6000 X100.649 Y106.872
G1 F1200 X117.242 Y123.465 E36.14658
G0 F6000 X117.808 Y123.465
G1 F1200 X100.649 Y106.306 E36.91333
G0 F6000 X100.649 Y105.74
G1 F1200 X118.373 Y123.465 E37.70535
G0 F6000 X118.939 Y123.465
G1 F1200 X100.649 Y105.175 E38.52264
G0 F6000 X100.649 Y104.609
G1 F1200 X119.349 Y123.309 E39.35825
G0 F6000 X119.349 Y122.743
G1 F1200 X100.649 Y104.043 E40.19386
G0 F6000 X100.649 Y103.478
G1 F1200 X119.349 Y122.178 E41.02947
G0 F6000 X119.349 Y121.612
G1 F1200 X100.649 Y102.912 E41.86509
G0 F6000 X100.649 Y102.346
G1 F1200 X119.349 Y121.046 E42.7007
G0 F6000 X119.349 Y120.481
G1 F1200 X100.649 Y101.78 E43.53633
G0 F6000 X100.649 Y101.215
G1 F1200 X119.349 Y119.915 E44.37194
G0 F6000 X119.349 Y119.349
G1 F1200 X100.649 Y100.649 E45.20755
G0 F6000 X100.649 Y100.083
G1 F1200 X119.349 Y118.784 E46.04319
G0 F6000 X119.349 Y118.218
G1 F1200 X100.649 Y99.518 E46.8788
G0 F6000 X100.649 Y98.952
G1 F1200 X119.349 Y117.652 E47.71441
G0 F6000 X119.349 Y117.086
G1 F1200 X100.649 Y98.386 E48.55002
G0 F6000 X100.649 Y97.821
G1 F1200 X119.349 Y116.521 E49.38563
G0 F6000 X119.349 Y115.955
G1 F1200 X100.649 Y97.255 E50.22124
G0 F6000 X100.649 Y96.689
G1 F1200 X119.349 Y115.389 E51.05685
G0 F6000 X119.349 Y114.824
G1 F1200 X101.059 Y96.534 E51.87414
G0 F6000 X101.625 Y96.534
G1 F1200 X119.349 Y114.258 E52.66614
G0 F6000 X119.349 Y113.692
G1 F1200 X102.191 Y96.534 E53.43285
G0 F6000 X102.756 Y96.534
G1 F1200 X119.349 Y113.127 E54.17431
G0 F6000 X119.349 Y112.561
G1 F1200 X103.322 Y96.534 E54.89048
G0 F6000 X103.888 Y96.534
G1 F1200 X119.349 Y111.995 E55.58135
G0 F6000 X119.349 Y111.43
G1 F1200 X104.453 Y96.534 E56.24698
G0 F6000 X105.019 Y96.534
G1 F1200 X119.349 Y110.864 E56.88732
G0 F6000 X119.349 Y110.298
G1 F1200 X105.585 Y96.534 E57.50236
G0 F6000 X106.15 Y96.534
G1 F1200 X119.349 Y109.733 E58.09216
G0 F6000 X119.349 Y109.167
G1 F1200 X106.716 Y96.534 E58.65667
G0 F6000 X107.282 Y96.534
G1 F1200 X119.349 Y108.601 E59.19588
G0 F6000 X119.349 Y108.036
G1 F1200 X107.847 Y96.534 E59.70985
G0 F6000 X108.413 Y96.534
G1 F1200 X119.349 Y107.47 E60.19853
G0 F6000 X119.349 Y106.904
G1 F1200 X108.979 Y96.534 E60.66191
G0 F6000 X109.544 Y96.534
M104 S230
G1 F1200 X119.349 Y106.338 E61.10003
G0 F6000 X119.349 Y105.773
G1 F1200 X110.11 Y96.534 E61.51287
G0 F6000 X110.676 Y96.534
G1 F1200 X119.349 Y105.207 E61.90043
G0 F6000 X119.349 Y104.641
G1 F1200 X111.242 Y96.534 E62.26269
G0 F6000 X111.807 Y96.534
G1 F1200 X119.349 Y104.076 E62.5997
G0 F6000 X119.349 Y103.51
G1 F1200 X112.373 Y96.534 E62.91143
G0 F6000 X112.939 Y96.534
G1 F1200 X119.349 Y102.944 E63.19786
G0 F6000 X119.349 Y102.379
G1 F1200 X113.504 Y96.534 E63.45904
G0 F6000 X114.07 Y96.534
G1 F1200 X119.349 Y101.813 E63.69494
G0 F6000 X119.349 Y101.247
G1 F1200 X114.636 Y96.534 E63.90554
G0 F6000 X115.201 Y96.534
G1 F1200 X119.349 Y100.682 E64.09089
G0 F6000 X119.349 Y100.116
G1 F1200 X115.767 Y96.534 E64.25095
G0 F6000 X116.333 Y96.534
G1 F1200 X119.349 Y99.55 E64.38572
G0 F6000 X119.349 Y98.985
G1 F1200 X116.898 Y96.534 E64.49525
G0 F6000 X117.464 Y96.534
G1 F1200 X119.349 Y98.419 E64.57948
G0 F6000 X119.349 Y97.853
G1 F1200 X118.03 Y96.534 E64.63842
G0 F6000 X118.595 Y96.534
G1 F1200 X119.349 Y97.287 E64.67209
G0 F6000 X119.349 Y96.722
G1 F1200 X119.161 Y96.534 E64.68049
G0 F6000 X119.161 Y96.184
;MESH:NONMESH
G0 F300 X119.161 Y96.184 Z0.4
G0 F6000 X119.161 Y96.094
G0 X119.718 Y96.166
G0 X119.9 Y124.116
G0 X119.9 Y124.126
;TIME_ELAPSED:115.630393
;LAYER:1
M106 S85
;TYPE:WALL-INNER
;MESH:casque_b3.stl
G1 F1350 X100.1 Y124.126 E65.30611
G1 X100.1 Y95.872 E66.19886
G1 X119.9 Y95.872 E66.82448
G1 X119.9 Y124.126 E67.71722
G0 F7500 X120.3 Y124.526
;TYPE:WALL-OUTER
G1 F1350 X99.7 Y124.526 E68.36812
G1 X99.7 Y95.472 E69.28615
G1 X120.3 Y95.472 E69.93705
G1 X120.3 Y124.526 E70.85507
G0 F7500 X120.03 Y124.256
G0 X119.79 Y123.736
G0 X119.51 Y123.736
;TYPE:SKIN
G1 F1350 X100.49 Y123.736 E71.45605
G1 X100.49 Y96.262 E72.32415
G1 X119.51 Y96.262 E72.92513
G1 X119.51 Y123.736 E73.79323
G0 F7500 X119.349 Y123.33
G1 F1350 X119.103 Y123.575 E73.8042
G0 F7500 X118.537 Y123.575
G1 F1350 X119.349 Y122.764 E73.84046
G0 F7500 X119.349 Y122.198
G1 F1350 X117.972 Y123.575 E73.90199
G0 F7500 X117.406 Y123.575
G1 F1350 X119.349 Y121.632 E73.98881
G0 F7500 X119.349 Y121.067
G1 F1350 X116.84 Y123.575 E74.1009
G0 F7500 X116.275 Y123.575
G1 F1350 X119.349 Y120.501 E74.23827
G0 F7500 X119.349 Y119.935
G1 F1350 X115.709 Y123.575 E74.40092
