;FLAVOR:Marlin
;TIME:9126
;Filament used: 5.4444m
;Layer height: 0.2
;MINX:71.931
;MINY:80.423
;MINZ:0.24
;MAXX:134.971
;MAXY:138.473
;MAXZ:79.09
;Generated with Cura_SteamEngine 4.8.0
M140 S50
M105
M190 S50
M104 S200
M105
M109 S200
M82 ;absolute extrusion mode
; Ender 3 Custom Start G-code
G92 E0 ; Reset Extruder
G28 ; Home all axes
G1 Z2.0 F3000 ; Move Z Axis up little to prevent scratching of Heat Bed
G1 X0.1 Y20 Z0.3 F5000.0 ; Move to start position
G1 X0.1 Y200.0 Z0.3 F1500.0 E15 ; Draw the first line
G1 X0.4 Y200.0 Z0.3 F5000.0 ; Move to side a little
G1 X0.4 Y20 Z0.3 F1500.0 E30 ; Draw the second line
G92 E0 ; Reset Extruder
G1 Z2.0 F3000 ; Move Z Axis up little to prevent scratching of Heat Bed
G1 X5 Y20 Z0.3 F5000.0 ; Move over to prevent blob squish
G92 E0
G92 E0
G1 F2880 E-7
;LAYER_COUNT:390
;LAYER:-6
M107
G0 F9000 X79.079 Y87.854 Z0.24
;TYPE:SUPPORT-INTERFACE
G1 F2880 E0
G1 F1125 X79.791 Y87.244 E0.07484
G1 X79.901 Y87.156 E0.08609
G1 X80.38 Y86.792 E0.13411
G1 X83.815 Y84.291 E0.47328
G1 X84.692 Y83.699 E0.55775
G1 X84.789 Y83.639 E0.56685
G1 X85.593 Y83.178 E0.64083
G1 X85.739 Y83.102 E0.65397
G1 X86.557 Y82.71 E0.72638
G1 X86.699 Y82.648 E0.73875
G1 X87.547 Y82.316 E0.81144
G1 X87.683 Y82.268 E0.82295
G1 X88.55 Y81.999 E0.89542
G1 X88.725 Y81.951 E0.9099
G1 X89.586 Y81.751 E0.98046
G1 X89.764 Y81.716 E0.99494
G1 X90.64 Y81.581 E1.06569
G1 X90.817 Y81.561 E1.07991
G1 X91.728 Y81.484 E1.15289
G1 X91.854 Y81.478 E1.16296
G1 X92.499 Y81.465 E1.21446
G1 X96.808 Y81.466 E1.55842
G1 X97.809 Y81.502 E1.63837
G1 X97.932 Y81.511 E1.64822
G1 X98.849 Y81.613 E1.72187
G1 X99.024 Y81.638 E1.73598
G1 X99.913 Y81.802 E1.80814
G1 X100.036 Y81.83 E1.81821
G1 X100.93 Y82.064 E1.89198
G1 X101.093 Y82.113 E1.90557
G1 X101.935 Y82.399 E1.97655
G1 X102.101 Y82.463 E1.99075
G1 X102.917 Y82.809 E2.0615
G1 X103.076 Y82.884 E2.07553
G1 X103.887 Y83.3 E2.14829
G1 X104.004 Y83.367 E2.15905
G1 X104.79 Y83.844 E2.23245
G1 X104.915 Y83.927 E2.24442
G1 X105.5 Y84.256 E2.298
G1 X106.131 Y84.514 E2.35241
G1 X106.795 Y84.691 E2.40727
G1 X107.636 Y84.79 E2.47486
G1 X108.614 Y84.826 E2.55299
G1 X108.734 Y84.835 E2.56259
G1 X109.651 Y84.937 E2.63624
G1 X109.826 Y84.962 E2.65035
G1 X110.715 Y85.126 E2.72251
G1 X110.838 Y85.154 E2.73258
G1 X111.732 Y85.388 E2.80635
G1 X111.895 Y85.437 E2.81994
G1 X112.737 Y85.723 E2.89092
G1 X112.903 Y85.787 E2.90512
G1 X113.706 Y86.128 E2.97476
G1 X113.895 Y86.216 E2.9914
G1 X114.681 Y86.621 E3.06198
G1 X114.808 Y86.691 E3.07356
G1 X115.667 Y87.215 E3.15388
G1 X118.109 Y88.822 E3.38723
G1 X118.215 Y88.894 E3.39746
G1 X118.991 Y89.445 E3.47343
G1 X119.105 Y89.533 E3.48493
G1 X119.775 Y90.088 E3.55438
G1 X119.946 Y90.244 E3.57285
G1 X120.596 Y90.89 E3.64601
G1 X121.105 Y91.335 E3.69997
G1 X121.911 Y91.847 E3.7762
G1 X122.28 Y92.035 E3.80925
G1 X122.404 Y92.106 E3.82066
G1 X123.205 Y92.594 E3.89553
G1 X123.321 Y92.669 E3.90656
G1 X123.833 Y93.027 E3.95643
G1 X126.788 Y95.179 E4.24823
G1 X127.552 Y95.779 E4.32577
G1 X127.675 Y95.884 E4.33868
G1 X128.323 Y96.474 E4.40864
G1 X128.456 Y96.604 E4.42348
G1 X129.087 Y97.268 E4.4966
G1 X129.176 Y97.368 E4.50729
G1 X129.748 Y98.069 E4.57951
G1 X129.868 Y98.226 E4.59529
G1 X130.368 Y98.937 E4.66467
G1 X130.473 Y99.101 E4.68021
G1 X130.916 Y99.84 E4.74899
G1 X131.012 Y100.013 E4.76478
G1 X131.406 Y100.796 E4.83475
G1 X131.492 Y100.982 E4.85111
G1 X131.831 Y101.799 E4.92172
G1 X131.878 Y101.923 E4.9323
G1 X132.078 Y102.497 E4.98082
G1 X133.177 Y105.874 E5.26431
G1 X133.219 Y106.011 E5.27575
G1 X133.463 Y106.863 E5.34649
G1 X133.51 Y107.054 E5.36219
G1 X133.69 Y107.917 E5.43256
G1 X133.719 Y108.083 E5.44601
G1 X133.839 Y108.993 E5.51928
G1 X133.856 Y109.163 E5.53292
G1 X133.908 Y110.055 E5.60424
G1 X133.912 Y110.185 E5.61463
G1 X133.899 Y111.123 E5.68951
G1 X133.893 Y111.267 E5.70101
G1 X133.813 Y112.18 E5.77417
G1 X133.796 Y112.321 E5.78551
G1 X133.645 Y113.254 E5.86095
G1 X133.622 Y113.371 E5.87047
G1 X133.411 Y114.263 E5.94364
G1 X133.365 Y114.434 E5.95778
G1 X133.182 Y115.035 E6.00793
G1 X132.092 Y118.386 E6.28921
G1 X132.047 Y118.518 E6.30034
G1 X131.73 Y119.382 E6.37381
G1 X131.659 Y119.555 E6.38874
G1 X131.294 Y120.365 E6.45965
G1 X131.224 Y120.507 E6.47229
G1 X130.78 Y121.325 E6.54659
G1 X130.705 Y121.45 E6.55822
G1 X130.228 Y122.194 E6.62877
G1 X130.115 Y122.357 E6.6446
G1 X129.579 Y123.072 E6.71593
G1 X129.48 Y123.193 E6.72841
G1 X128.891 Y123.87 E6.80004
G1 X128.771 Y123.999 E6.81411
G1 X128.126 Y124.639 E6.88664
G1 X128.024 Y124.733 E6.89771
G1 X127.304 Y125.349 E6.97335
G1 X127.213 Y125.422 E6.98266
G1 X126.76 Y125.767 E7.02811
G1 X123.838 Y127.894 E7.31661
G1 X122.961 Y128.486 E7.40108
G1 X122.855 Y128.552 E7.41104
G1 X122.558 Y128.722 E7.43836
G1 X122 Y129.091 E7.49176
G1 X121.478 Y129.539 E7.54667
G1 X120.885 Y130.228 E7.61924
G1 X120.562 Y130.675 E7.66326
G1 X120.458 Y130.81 E7.67686
G1 X119.882 Y131.497 E7.74842
G1 X119.756 Y131.636 E7.7634
G1 X119.146 Y132.264 E7.83329
G1 X119.014 Y132.391 E7.84791
G1 X118.354 Y132.978 E7.91841
G1 X118.211 Y133.096 E7.93321
G1 X117.521 Y133.624 E8.00257
G1 X117.361 Y133.736 E8.01816
G1 X116.209 Y134.468 E8.12711
G1 X116.115 Y134.525 E8.13588
G1 X114.444 Y135.47 E8.28912
G1 X114.338 Y135.528 E8.29877
G1 X113.5 Y135.962 E8.3741
G1 X113.367 Y136.025 E8.38585
G1 X112.557 Y136.373 E8.45622
G1 X112.359 Y136.449 E8.47315
G1 X111.553 Y136.727 E8.54121
G1 X111.349 Y136.789 E8.55823
G1 X110.503 Y137.014 E8.62811
G1 X110.329 Y137.054 E8.64236
G1 X109.462 Y137.217 E8.71278
G1 X109.274 Y137.246 E8.72796
G1 X108.414 Y137.342 E8.79704
G1 X108.223 Y137.357 E8.81233
G1 X107.305 Y137.395 E8.88567
G1 X107.211 Y137.397 E8.89318
G1 X104.89 Y137.408 E9.07845
G1 X103.941 Y137.377 E9.15425
G1 X103.78 Y137.367 E9.16712
G1 X102.88 Y137.272 E9.23936
G1 X102.711 Y137.248 E9.25299
G1 X101.833 Y137.091 E9.32419
G1 X101.656 Y137.053 E9.33864
G1 X100.78 Y136.828 E9.41083
G1 X100.645 Y136.789 E9.42205
G1 X99.782 Y136.499 E9.49472
G1 X99.637 Y136.445 E9.50708
G1 X98.778 Y136.085 E9.58142
G1 X98.654 Y136.027 E9.59235
G1 X97.833 Y135.611 E9.66582
G1 X97.711 Y135.544 E9.67693
G1 X96.919 Y135.067 E9.75073
G1 X96.794 Y134.984 E9.76271
G1 X96.023 Y134.439 E9.83808
G1 X95.949 Y134.382 E9.84553
G1 X95.267 Y133.829 E9.91562
G1 X93.943 Y132.681 E10.0555
G1 X93.2 Y131.988 E10.13661
G1 X93.088 Y131.876 E10.14925
G1 X92.467 Y131.204 E10.22229
G1 X92.371 Y131.092 E10.23407
G1 X91.812 Y130.392 E10.30557
G1 X91.708 Y130.252 E10.31949
G1 X91.213 Y129.529 E10.38944
G1 X91.106 Y129.357 E10.40561
G1 X90.438 Y128.169 E10.5144
G1 X90.373 Y128.047 E10.52544
G1 X88.989 Y125.256 E10.77411
G1 X88.654 Y124.676 E10.82758
G1 X88.241 Y124.133 E10.88204
G1 X87.761 Y123.645 E10.93668
G1 X87.226 Y123.223 E10.99107
G1 X86.783 Y122.957 E11.03232
G1 X86.792 Y122.939 E11.03392
G1 X86.175 Y122.651 E11.08828
G1 X85.367 Y122.236 E11.16078
G1 X85.25 Y122.169 E11.17155
G1 X84.442 Y121.678 E11.24702
G1 X84.331 Y121.605 E11.25762
G1 X83.884 Y121.293 E11.30114
G1 X83.791 Y121.229 E11.31015
G1 X80.371 Y118.737 E11.64793
G1 X79.552 Y118.095 E11.731
G1 X79.422 Y117.985 E11.7446
G1 X78.766 Y117.386 E11.81551
G1 X78.651 Y117.274 E11.82832
G1 X78.013 Y116.601 E11.90235
G1 X77.92 Y116.496 E11.91354
G1 X77.357 Y115.807 E11.98457
G1 X77.241 Y115.654 E11.99989
G1 X76.722 Y114.916 E12.07191
G1 X76.639 Y114.788 E12.08409
G1 X76.175 Y114.011 E12.15633
G1 X76.098 Y113.872 E12.16902
G1 X75.688 Y113.059 E12.2417
G1 X75.62 Y112.911 E12.2547
G1 X75.271 Y112.069 E12.32746
G1 X75.025 Y111.374 E12.38631
G1 X73.702 Y107.307 E12.7277
G1 X73.43 Y106.357 E12.80658
G1 X73.383 Y106.162 E12.82259
G1 X73.203 Y105.297 E12.89312
G1 X73.177 Y105.148 E12.90519
G1 X73.054 Y104.218 E12.98007
G1 X73.039 Y104.053 E12.9933
G1 X72.988 Y103.178 E13.06326
G1 X72.984 Y103.036 E13.0746
G1 X72.997 Y102.099 E13.14941
G1 X73.003 Y101.957 E13.16075
G1 X73.083 Y101.061 E13.23256
G1 X73.105 Y100.88 E13.24711
G1 X73.244 Y100.022 E13.3165
G1 X73.285 Y99.813 E13.3335
G1 X73.49 Y98.948 E13.40446
G1 X73.533 Y98.789 E13.41761
G1 X73.711 Y98.201 E13.46665
G1 X75.033 Y94.141 E13.80748
G1 X75.382 Y93.187 E13.88857
G1 X75.439 Y93.047 E13.90063
G1 X75.817 Y92.206 E13.97424
G1 X75.881 Y92.078 E13.98566
G1 X76.308 Y91.292 E14.05706
G1 X76.408 Y91.124 E14.07267
G1 X76.887 Y90.376 E14.14357
G1 X76.972 Y90.252 E14.15557
G1 X77.535 Y89.5 E14.23056
G1 X77.613 Y89.405 E14.24037
G1 X78.212 Y88.717 E14.31319
G1 X78.333 Y88.587 E14.32736
G1 X78.971 Y87.954 E14.39911
G1 X79.079 Y87.854 E14.41085
G0 F9000 X78.4 Y88.52
G1 F1125 X78.4 Y117.009 E16.68497
G0 F9000 X80 Y118.446
G1 F1125 X80 Y87.08 E19.18874
G0 F9000 X81.6 Y85.903
G1 F1125 X81.6 Y119.632 E21.88113
G0 F9000 X83.2 Y120.798
G1 F1125 X83.2 Y84.738 E24.7596
G0 F9000 X84.8 Y83.632
G1 F1125 X84.8 Y121.895 E27.81392
G0 F9000 X86.4 Y122.756
G1 F1125 X86.4 Y82.785 E31.00458
G0 F9000 X88 Y82.169
G1 F1125 X88 Y123.887 E34.33469
G0 F9000 X89.6 Y126.488
G1 F1125 X89.6 Y81.748 E37.90603
G0 F9000 X91.2 Y81.528
G1 F1125 X91.2 Y129.508 E41.736
G0 F9000 X92.8 Y131.564
G1 F1125 X92.8 Y81.466 E45.73504
G0 F9000 X94.4 Y81.466
G1 F1125 X94.4 Y133.077 E49.85485
G0 F9000 X96 Y134.421
G1 F1125 X96 Y81.466 E54.08195
G0 F9000 X97.6 Y81.495
G1 F1125 X97.6 Y135.477 E58.39102
G0 F9000 X99.2 Y136.261
G1 F1125 X99.2 Y81.671 E62.74863
G0 F9000 X100.8 Y82.03
G1 F1125 X100.8 Y136.833 E67.12325
G0 F9000 X102.4 Y137.192
G1 F1125 X102.4 Y82.59 E71.48181
G0 F9000 X104 Y83.365
G1 F1125 X104 Y137.378 E75.79336
G0 F9000 X105.6 Y137.405
G1 F1125 X105.6 Y84.297 E80.03268
G0 F9000 X107.2 Y84.739
G1 F1125 X107.2 Y137.398 E84.23614
G0 F9000 X108.8 Y137.299
G1 F1125 X108.8 Y84.843 E88.42341
G0 F9000 X110.4 Y85.068
G1 F1125 X110.4 Y137.038 E92.57188
G0 F9000 X112 Y136.573
G1 F1125 X112 Y85.473 E96.6509
G0 F9000 X113.6 Y86.083
G1 F1125 X113.6 Y135.911 E100.62839
G0 F9000 X115.2 Y135.043
G1 F1125 X115.2 Y86.931 E104.4689
G0 F9000 X116.8 Y87.961
G1 F1125 X116.8 Y134.093 E108.15135
G0 F9000 X118.4 Y132.938
G1 F1125 X118.4 Y89.026 E111.6566
G0 F9000 X120 Y90.298
G1 F1125 X120 Y131.357 E114.9341
G0 F9000 X121.6 Y129.435
G1 F1125 X121.6 Y91.65 E117.95027
G0 F9000 X123.2 Y92.591
G1 F1125 X123.2 Y128.325 E120.80271
G0 F9000 X124.8 Y127.194
G1 F1125 X124.8 Y93.732 E123.47379
G0 F9000 X126.4 Y94.897
G1 F1125 X126.4 Y126.03 E125.95896
G0 F9000 X128 Y124.754
G1 F1125 X128 Y96.18 E128.23986
G0 F9000 X129.6 Y97.888
G1 F1125 X129.6 Y123.044 E130.24792
G0 F9000 X131.2 Y120.552
G1 F1125 X131.2 Y100.387 E131.85758
G1 F2880 E124.85758
G0 F9000 X132.368 Y100.339
G0 X132.951 Y101.817
G0 X133.812 Y104.386
G0 X132.8 Y104.716
G1 F2880 E131.85758
G1 F1125 X132.8 Y116.21 E132.77508
G1 F2880 E125.77508
G0 F9000 X133.813 Y116.539
G0 X132.634 Y119.981
G0 X131.709 Y121.845
G0 X130.983 Y122.974
G0 X129.678 Y124.587
G0 X128.725 Y125.534
G0 X118.867 Y133.934
G0 X117.944 Y134.627
G0 X116.656 Y135.442
G0 X113.808 Y136.993
G0 X111.874 Y137.743
G0 X110.542 Y138.097
G0 X108.509 Y138.402
G0 X104.863 Y138.472
G0 X102.753 Y138.329
G0 X101.418 Y138.09
G0 X99.421 Y137.5
G0 X98.182 Y136.981
G0 X96.358 Y135.972
G0 X94.592 Y134.651
G0 X92.326 Y132.619
G0 X77.115 Y117.191
G0 X75.929 Y115.639
G0 X76.8 Y115.026
G1 F2880 E132.77508
G1 F1125 X76.8 Y90.511 E134.73197
G0 F9000 X75.2 Y93.684
G1 F1125 X75.2 Y111.868 E136.1835
G1 F2880 E129.1835
G0 F9000 X74.194 Y112.222
G0 X72.687 Y107.628
G0 X73.6 Y106.95
G1 F2880 E136.1835
G1 F1125 X73.6 Y98.567 E136.85267
G1 F2880 E129.85267
G0 F300 X73.6 Y98.567 Z0.54
G0 F9000 X72.461 Y98.677
G0 X72.052 Y100.723
G0 X71.933 Y102.058
G0 X71.979 Y104.136
G0 X72.158 Y105.502
G0 X72.687 Y107.628
G0 X74.277 Y112.451
G0 X74.991 Y114.009
G0 X75.741 Y115.358
G0 X76.703 Y114.887
;TIME_ELAPSED:104.202573
;LAYER:-5
;TYPE:SUPPORT
G1 F2880 E136.85267
G1 F1125 X81.037 Y119.221 E137.46424
G1 X80.371 Y118.735 E137.54651
G1 X79.551 Y118.094 E137.65036
G1 X79.421 Y117.984 E137.66735
G1 X78.766 Y117.385 E137.75592
G1 X78.65 Y117.272 E137.77207
G1 X78.012 Y116.599 E137.86461
G1 X77.919 Y116.495 E137.87853
G1 X77.356 Y115.806 E137.96731
G1 X77.24 Y115.653 E137.98647
G1 X76.721 Y114.915 E138.07649
G1 F2880 E131.07649
G0 F9000 X75.851 Y115.527
G0 X77.115 Y117.191
G0 X78.031 Y118.157
G0 X78.996 Y118.969
G0 X80.411 Y120.082
G0 X81.037 Y119.221
G1 F2880 E138.07649
G1 F1125 X83.791 Y121.228 E138.41651
G1 X83.884 Y121.292 E138.42778
G1 X84.33 Y121.603 E138.48203
G1 X84.441 Y121.676 E138.49529
G1 X85.25 Y122.168 E138.58977
G1 X85.366 Y122.235 E138.60313
G1 X85.569 Y122.339 E138.62589
G1 X75.255 Y112.024 E140.08138
G1 X75.024 Y111.372 E140.1504
G1 X74.545 Y109.9 E140.30486
G1 X101.707 Y137.062 E144.13771
G1 X101.832 Y137.09 E144.15049
G1 X102.71 Y137.247 E144.23949
G1 X102.88 Y137.271 E144.25662
G1 X103.382 Y137.323 E144.30697
G1 X73.863 Y107.804 E148.47242
G1 X73.701 Y107.306 E148.52468
G1 X73.43 Y106.355 E148.62335
G1 X73.382 Y106.161 E148.64329
G1 X73.316 Y105.843 E148.67569
G1 X104.879 Y137.406 E153.12957
G1 X104.89 Y137.407 E153.13068
G1 X106.287 Y137.4 E153.27007
G1 X73.048 Y104.161 E157.96045
G1 X73.038 Y104.052 E157.97138
G1 X72.988 Y103.177 E158.05883
G1 X72.984 Y103.034 E158.0731
G1 X72.988 Y102.686 E158.10783
G1 X107.679 Y137.378 E163.00317
G1 X108.223 Y137.356 E163.0575
G1 X108.413 Y137.341 E163.07651
G1 X108.992 Y137.276 E163.13465
G1 X73.057 Y101.341 E168.20547
G1 X73.083 Y101.06 E168.23362
G1 X73.104 Y100.878 E168.2519
G1 X73.23 Y100.1 E168.33054
G1 X110.206 Y137.076 E173.54826
G1 X110.329 Y137.053 E173.56074
G1 X110.502 Y137.013 E173.57846
G1 X111.336 Y136.791 E173.66458
G1 X73.49 Y98.946 E179.00498
G1 X73.533 Y98.788 E179.02132
G1 X73.71 Y98.2 E179.08259
G1 X73.82 Y97.862 E179.11806
G1 X112.393 Y136.434 E184.56106
G1 X112.557 Y136.372 E184.57855
G1 X113.366 Y136.024 E184.66643
G1 X113.386 Y136.014 E184.66866
G1 X74.168 Y96.795 E190.20281
G1 X74.515 Y95.728 E190.31477
G1 X114.321 Y135.534 E195.93182
G1 X114.337 Y135.526 E195.93361
G1 X114.443 Y135.468 E195.94566
G1 X115.226 Y135.025 E196.03543
G1 X74.862 Y94.661 E201.73123
G1 X75.033 Y94.14 E201.78594
G1 X75.226 Y93.611 E201.84213
G1 X116.13 Y134.515 E207.61412
G1 X116.208 Y134.467 E207.62326
G1 X116.995 Y133.966 E207.71635
G1 X75.636 Y92.606 E213.55262
G1 X75.817 Y92.205 E213.59652
G1 X75.88 Y92.077 E213.61076
G1 X76.105 Y91.662 E213.65786
G1 X117.83 Y133.386 E219.54564
G1 X118.21 Y133.095 E219.59339
G1 X118.354 Y132.977 E219.61197
G1 X118.608 Y132.75 E219.64596
G1 X76.631 Y90.773 E225.56937
G1 X76.886 Y90.375 E225.61653
G1 X76.972 Y90.251 E225.63159
G1 X77.207 Y89.935 E225.67089
G1 X119.337 Y132.065 E231.61588
G1 X119.755 Y131.634 E231.67579
G1 X119.881 Y131.496 E231.69444
G1 X120.019 Y131.333 E231.71575
G1 X77.834 Y89.148 E237.66851
G1 X78.211 Y88.716 E237.72572
G1 X78.333 Y88.586 E237.74351
G1 X78.51 Y88.41 E237.76841
G1 X120.651 Y130.551 E243.71496
G1 X120.884 Y130.227 E243.75478
G1 X121.281 Y129.766 E243.81549
G1 X79.234 Y87.72 E249.7487
G1 X79.79 Y87.243 E249.8218
G1 X79.9 Y87.155 E249.83586
G1 X80.005 Y87.076 E249.84897
G1 X122.011 Y129.082 E255.77647
G1 X122.557 Y128.721 E255.84178
G1 X122.854 Y128.551 E255.87593
G1 X122.878 Y128.535 E255.8788
G1 X80.816 Y86.473 E261.81421
G1 X81.635 Y85.878 E261.91522
G1 X123.726 Y127.968 E267.85464
G1 X123.837 Y127.893 E267.86801
G1 X124.547 Y127.376 E267.95564
G1 X82.453 Y85.282 E273.89556
G1 X83.271 Y84.685 E273.99661
G1 X125.366 Y126.78 E279.93667
G1 X126.184 Y126.184 E280.03765
G1 X84.099 Y84.099 E285.9763
G1 X84.691 Y83.698 E286.04765
G1 X84.788 Y83.638 E286.05903
G1 X84.956 Y83.542 E286.07834
G1 X126.998 Y125.584 E292.01092
G1 X127.212 Y125.421 E292.03776
G1 X127.303 Y125.348 E292.0494
G1 X127.774 Y124.945 E292.11125
